X: 27768
T: Morning, The
R: jig
M: 6/8
K: Gmajor
|:DGB d2 e|dgd edB|DGB ded|AFD FAc|
BGB d2 e|dgd edB|DFA cAF|1 DFA GGE:|2 DFA G3||
|:GBd e2 g|fdf gdB|ecA BGE|DFA dfa|
bag e2 g|fdf gdB|ecA BGE|1 DFA G3:|2 DFA GGE||

